openmetadata-ui/src/main/resources/ui/src/assets/svg/arrow-right-primary.svg

<svg
      fill="none"
      height="10"
      viewBox="0 0 7 10"
      width="7"
      xmlns="http://www.w3.org/2000/svg">
      <path
        d="M6.29561 5.47798L2.34571 9.30178C2.0727 9.56607 1.63124 9.56607 1.36114 9.30178L0.704756 8.66635C0.431748 8.40206 0.431748 7.9747 0.704756 7.71321L3.50454 5.00281L0.704756 2.29241C0.431748 2.02812 0.431748 1.60075 0.704756 1.33927L1.35823 0.698219C1.63124 0.433927 2.0727 0.433927 2.3428 0.698219L6.2927 4.52202C6.56861 4.78632 6.56861 5.21368 6.29561 5.47798Z"
        fill="#1e61f0"
      />
    </svg>

<svg xmlns="http://www.w3.org/2000/svg" width="7" height="10" fill="none"><path fill="#004AB3FF" d="m6.296 5.478-3.95 3.824a.71.71 0 0 1-.985 0l-.656-.636a.657.657 0 0 1 0-.953l2.8-2.71-2.8-2.71a.657.657 0 0 1 0-.954L1.358.7a.71.71 0 0 1 .985 0l3.95 3.823a.658.658 0 0 1 .003.956Z"/></svg>
